assets/icons/standard/contract.svg

<?xml version="1.0"?><svg xmlns="http://www.w3.org/2000/svg" width="100" height="100" viewBox="0 0 100 100"><path fill="#fff" d="m74.6 33.6l-13.2-13.2c-0.3-0.3-0.6-0.4-1-0.4-0.8 0-1.4 0.6-1.4 1.4v10.6c0 2.2 1.8 4 4 4h10.6c0.8 0 1.4-0.6 1.4-1.4 0-0.4-0.1-0.7-0.4-1z m-1.6 8.4h-14c-3.3 0-6-2.7-6-6v-14c0-1.1-0.9-2-2-2h-20c-3.3 0-6 2.7-6 6v48c0 3.3 2.7 6 6 6h38c3.3 0 6-2.7 6-6v-30c0-1.1-0.9-2-2-2z m-41-9.4l4.9-0.7c0.1 0 0.3-0.1 0.3-0.2l2.2-4.5c0.2-0.3 0.6-0.3 0.8 0l2.2 4.5c0.1 0.1 0.2 0.2 0.3 0.2l4.9 0.7c0.3 0.1 0.5 0.5 0.2 0.7l-3.6 3.5c-0.1 0.1-0.1 0.2-0.1 0.4l0.8 4.9c0.1 0.3-0.3 0.6-0.6 0.4l-4.4-2.3c-0.1-0.1-0.3-0.1-0.4 0l-4.4 2.3c-0.3 0.2-0.7-0.1-0.6-0.4l0.8-4.9c0-0.1 0-0.3-0.1-0.4l-3.6-3.5c-0.1-0.2 0.1-0.6 0.4-0.7z m31 33.4c0 1.1-0.9 2-2 2h-26c-1.1 0-2-0.9-2-2v-2c0-1.1 0.9-2 2-2h26c1.1 0 2 0.9 2 2v2z m4-12c0 1.1-0.9 2-2 2h-30c-1.1 0-2-0.9-2-2v-2c0-1.1 0.9-2 2-2h30c1.1 0 2 0.9 2 2v2z"></path></svg>

<svg xmlns="http://www.w3.org/2000/svg" x="0px" y="0px" width="100" height="100"
	 viewBox="0 0 100 100" style="enable-background:new 0 0 100 100;" xml:space="preserve">

<g>
	<g>
		<path fill="#FFFFFF" d="M74.6,33.6L61.4,20.4c-0.3-0.3-0.6-0.4-1-0.4h0c-0.8,0-1.4,0.6-1.4,1.4V32c0,2.2,1.8,4,4,4h10.6
			c0.8,0,1.4-0.6,1.4-1.4v0C75,34.2,74.9,33.9,74.6,33.6z"/>
	</g>
	<g>
		<path fill="#FFFFFF" d="M73,42H59c-3.3,0-6-2.7-6-6V22c0-1.1-0.9-2-2-2H31c-3.3,0-6,2.7-6,6v48c0,3.3,2.7,6,6,6h38c3.3,0,6-2.7,6-6
			V44C75,42.9,74.1,42,73,42z M32,32.6l4.9-0.7c0.1,0,0.3-0.1,0.3-0.2l2.2-4.5c0.2-0.3,0.6-0.3,0.8,0l2.2,4.5
			c0.1,0.1,0.2,0.2,0.3,0.2l4.9,0.7c0.3,0.1,0.5,0.5,0.2,0.7l-3.6,3.5c-0.1,0.1-0.1,0.2-0.1,0.4l0.8,4.9c0.1,0.3-0.3,0.6-0.6,0.4
			l-4.4-2.3c-0.1-0.1-0.3-0.1-0.4,0l-4.4,2.3c-0.3,0.2-0.7-0.1-0.6-0.4l0.8-4.9c0-0.1,0-0.3-0.1-0.4l-3.6-3.5
			C31.5,33.1,31.7,32.7,32,32.6z M63,66c0,1.1-0.9,2-2,2H35c-1.1,0-2-0.9-2-2v-2c0-1.1,0.9-2,2-2h26c1.1,0,2,0.9,2,2V66z M67,54
			c0,1.1-0.9,2-2,2H35c-1.1,0-2-0.9-2-2v-2c0-1.1,0.9-2,2-2h30c1.1,0,2,0.9,2,2V54z"/>
	</g>
</g>
</svg>
